packages/calcite-ui-icons/icons/layer-connection-32.svg

<?xml version="1.0" encoding="UTF-8"?><svg id="icons" xmlns="http://www.w3.org/2000/svg" viewBox="0 0 32 32"><defs><style>.cls-1{fill:none;}.cls-1,.cls-2{stroke-width:0px;}</style></defs><path class="cls-2" d="M28,18v-.75c0-.68945-.56055-1.25-1.25-1.25h-1.83081c-.35742-1.71075-1.87622-3-3.69165-3h-5.22754v3h-4v1h4v4h-4v1h4v3h5.22754c2.08008,0,3.77246-1.69189,3.77246-3.77197v-.22803h1.75c.68945,0,1.25-.56055,1.25-1.25v-.75h4v-1h-4ZM19,24h-2v-10h2v10ZM24,21v.22803c0,1.52832-1.24414,2.77197-2.77246,2.77197h-1.22754v-10h1.22754c1.52832,0,2.77246,1.24365,2.77246,2.77197v4.22803ZM27,19.75c0,.1377-.1123.25-.25.25h-1.75v-3h1.75c.1377,0,.25.1123.25.25v2.5ZM29.71362,20l1.28638,8s-3.09326-.79999-7.53784-.79999c-6.87622,0-8.0481,2.59998-14.92432,2.59998-4.44458,0-7.53784-1.79999-7.53784-1.79999L5,3.89996c.69922.23309,2.5188.96826,5.33911.96826,4.80811,0,5.59082-1.6571,10.73511-1.6571,3.25903,0,5.92578.68884,5.92578.68884l1.95752,12.39618c-.23584-.56775-.67676-1.02454-1.22803-1.29089l-1.60547-10.27673c-.9458-.19287-2.8623-.51758-5.0498-.51758-2.47461,0-3.84229.39355-5.29004.81055-1.44531.4165-2.94043.84668-5.44482.84668-2.00537,0-3.52783-.3457-4.54443-.65088l-3.6875,22.2168c1.06055.47949,3.42725,1.36572,6.43018,1.36572,3.28076,0,5.1626-.60791,7.15527-1.25146,2.05176-.6626,4.17383-1.34814,7.76953-1.34814,2.72607,0,4.94873.29004,6.31299.52783l-.93311-5.62079c.16821-.258.29443-.79553.35791-1.10724h.51343Z"/><rect class="cls-1" y="0" width="32" height="32"/></svg>

<svg xmlns="http://www.w3.org/2000/svg" viewBox="0 0 32 32"><path d="M28 18v-.75c0-.69-.56-1.25-1.25-1.25h-1.83a3.778 3.778 0 0 0-3.692-3H16v3h-4v1h4v4h-4v1h4v3h5.228A3.776 3.776 0 0 0 25 21.228V21h1.75c.69 0 1.25-.56 1.25-1.25V19h4v-1h-4zm-9 6h-2V14h2v10zm5-3v.228A2.776 2.776 0 0 1 21.228 24H20V14h1.228A2.776 2.776 0 0 1 24 16.772V21zm3-1.25a.25.25 0 0 1-.25.25H25v-3h1.75a.25.25 0 0 1 .25.25v2.5zm2.714.25L31 28s-3.093-.8-7.538-.8c-6.876 0-8.048 2.6-14.924 2.6C4.093 29.8 1 28 1 28L5 3.9c.7.233 2.519.968 5.34.968 4.807 0 5.59-1.657 10.734-1.657 3.26 0 5.926.689 5.926.689l1.958 12.396a2.507 2.507 0 0 0-1.229-1.29L26.124 4.728a26.165 26.165 0 0 0-5.05-.518c-2.474 0-3.842.393-5.29.81-1.445.417-2.94.847-5.445.847a15.6 15.6 0 0 1-4.544-.65L2.107 27.433a15.984 15.984 0 0 0 6.43 1.366c3.281 0 5.163-.608 7.156-1.252 2.052-.662 4.174-1.348 7.77-1.348 2.725 0 4.948.29 6.312.528l-.933-5.62c.168-.259.295-.796.358-1.108h.514z" stroke-width="0"/><path stroke-width="0" fill="none" d="M0 0h32v32H0z"/></svg>
